; generated by Slic3r 1.3.0 on 2019-09-09 at 06:19:14

; external perimeters extrusion width = 0.44mm (1.26mm^3/s)
; perimeters extrusion width = 0.56mm (3.23mm^3/s)
; infill extrusion width = 0.50mm (3.83mm^3/s)
; solid infill extrusion width = 0.56mm (1.08mm^3/s)
; top infill extrusion width = 0.56mm (0.81mm^3/s)

M107
M190 S55 ; set bed temperature and wait for it to be reached
M104 S215 ; set temperature
G28 ; home all axes
G1 Z5 F5000 ; lift nozzle
G1 X41 Y3
G92 X0 Y0 Z5
; Filament gcode

M109 S215 ; set temperature and wait for it to be reached
G21 ; set units to millimeters
G90 ; use absolute coordinates
M82 ; use absolute distances for extrusion
G92 E0
G1 Z0.400 F7800.000
G1 E-2.00000 F2400.00000
G92 E0
G1 X70.269 Y29.903 F7800.000
G1 E2.00000 F2400.00000
G1 F1800
G1 X71.418 Y27.763 E2.28854
G1 X73.197 Y26.108 E2.57709
G1 X75.414 Y25.115 E2.86563
G1 X77.300 Y24.872 E3.09142
G1 X102.700 Y24.872 E6.10806
G1 X105.097 Y25.269 E6.39660
G1 X107.237 Y26.418 E6.68515
G1 X108.892 Y28.197 E6.97369
G1 X109.885 Y30.414 E7.26224
G1 X110.128 Y32.300 E7.48803
G1 X110.128 Y57.700 E10.50466
G1 X109.731 Y60.097 E10.79321
G1 X108.582 Y62.237 E11.08175
G1 X106.803 Y63.892 E11.37030
G1 X104.586 Y64.885 E11.65884
G1 X102.700 Y65.128 E11.88463
G1 X77.300 Y65.128 E14.90127
G1 X74.903 Y64.731 E15.18981
G1 X72.763 Y63.582 E15.47836
G1 X71.108 Y61.803 E15.76690
G1 X70.115 Y59.586 E16.05545
G1 X69.872 Y57.700 E16.28124
G1 X69.872 Y32.300 E19.29787
G1 X70.259 Y29.962 E19.57929
G1 X70.983 Y30.025 F7800.000
G1 F1800
G1 X72.127 Y28.020 E19.85351
G1 X73.883 Y26.520 E20.12774
G1 X76.043 Y25.705 E20.40196
G1 X77.300 Y25.586 E20.55193
G1 X102.700 Y25.586 E23.56857
G1 X104.975 Y25.983 E23.84279
G1 X106.980 Y27.127 E24.11702
G1 X108.480 Y28.883 E24.39124
G1 X109.295 Y31.043 E24.66547
G1 X109.414 Y32.300 E24.81543
G1 X109.414 Y57.700 E27.83207
G1 X109.017 Y59.975 E28.10629
G1 X107.873 Y61.980 E28.38052
G1 X106.117 Y63.480 E28.65474
G1 X103.957 Y64.295 E28.92897
G1 X102.700 Y64.414 E29.07893
G1 X77.300 Y64.414 E32.09557
G1 X75.025 Y64.017 E32.36979
G1 X73.020 Y62.873 E32.64402
G1 X71.520 Y61.117 E32.91824
G1 X70.705 Y58.957 E33.19247
G1 X70.586 Y57.700 E33.34243
G1 X70.586 Y32.300 E36.35907
G1 X70.973 Y30.085 E36.62617
G1 E34.62617 F2400.00000
G92 E0
G1 X100.872 Y55.872 F7800.000
G1 E2.00000 F2400.00000
G1 F1800
G1 X79.128 Y55.872 E4.58235
G1 X79.128 Y34.128 E7.16471
G1 X100.872 Y34.128 E9.74706
G1 X100.872 Y55.812 E12.32229
G1 X101.586 Y56.586 F7800.000
G1 F1800
G1 X78.414 Y56.586 E15.07428
G1 X78.414 Y33.414 E17.82627
G1 X101.586 Y33.414 E20.57826
G1 X101.586 Y56.526 E23.32312
G1 X102.300 Y57.300 F7800.000
G1 F1800
G1 X77.700 Y57.300 E26.24474
G1 X77.700 Y32.700 E29.16637
G1 X102.300 Y32.700 E32.08799
G1 X102.300 Y57.240 E35.00249
G1 X101.914 Y57.196 F7800.000
G1 E33.00249 F2400.00000
G92 E0
G1 X99.880 Y55.435 F7800.000
G1 E2.00000 F2400.00000
G1 F1800
G1 X100.435 Y54.880 E2.09386
G1 X100.435 Y53.864 E2.21518
G1 X98.864 Y55.435 E2.48062
G1 X97.848 Y55.435 E2.60194
G1 X100.435 Y52.848 E3.03895
G1 X100.435 Y51.832 E3.16028
G1 X96.832 Y55.435 E3.76887
G1 X95.817 Y55.435 E3.89020
G1 X100.435 Y50.817 E4.67037
G1 X100.435 Y49.801 E4.79169
G1 X94.801 Y55.435 E5.74345
G1 X93.785 Y55.435 E5.86477
G1 X100.435 Y48.785 E6.98810
G1 X100.435 Y47.769 E7.10943
G1 X92.769 Y55.435 E8.40434
G1 X91.754 Y55.435 E8.52566
G1 X100.435 Y46.754 E9.99215
G1 X100.435 Y45.738 E10.11347
G1 X90.738 Y55.435 E11.75154
G1 X89.722 Y55.435 E11.87287
G1 X100.435 Y44.722 E13.68251
G1 X100.435 Y43.706 E13.80384
G1 X88.706 Y55.435 E15.78506
G1 X87.691 Y55.435 E15.90639
G1 X100.435 Y42.691 E18.05919
G1 X100.435 Y41.675 E18.18052
G1 X86.675 Y55.435 E20.50490
G1 X85.659 Y55.435 E20.62623
G1 X100.435 Y40.659 E23.12219
G1 X100.435 Y39.643 E23.24352
G1 X84.643 Y55.435 E25.91106
G1 X83.628 Y55.435 E26.03238
G1 X100.435 Y38.628 E28.87150
G1 X100.435 Y37.612 E28.99283
G1 X82.612 Y55.435 E32.00353
G1 X81.596 Y55.435 E32.12485
G1 X100.435 Y36.596 E35.30713
G1 X100.435 Y35.580 E35.42846
G1 X80.580 Y55.435 E38.78232
G1 X79.565 Y55.435 E38.90364
G1 X100.435 Y34.565 E42.42908
G1 X99.420 Y34.565 E42.55040
G1 X79.565 Y54.420 E45.90427
G1 X79.565 Y53.404 E46.02559
G1 X98.404 Y34.565 E49.20788
G1 X97.388 Y34.565 E49.32921
G1 X79.565 Y52.388 E52.33991
G1 X79.565 Y51.372 E52.46124
G1 X96.372 Y34.565 E55.30037
G1 X95.357 Y34.565 E55.42169
G1 X79.565 Y50.357 E58.08924
G1 X79.565 Y49.341 E58.21057
G1 X94.341 Y34.565 E60.70654
G1 X93.325 Y34.565 E60.82786
G1 X79.565 Y48.325 E63.15225
G1 X79.565 Y47.309 E63.27358
G1 X92.309 Y34.565 E65.42639
G1 X91.294 Y34.565 E65.54772
G1 X79.565 Y46.294 E67.52895
G1 X79.565 Y45.278 E67.65027
G1 X90.278 Y34.565 E69.45993
G1 X89.262 Y34.565 E69.58125
G1 X79.565 Y44.262 E71.21933
G1 X79.565 Y43.246 E71.34065
G1 X88.246 Y34.565 E72.80715
G1 X87.231 Y34.565 E72.92847
G1 X79.565 Y42.231 E74.22339
G1 X79.565 Y41.215 E74.34471
G1 X86.215 Y34.565 E75.46805
G1 X85.199 Y34.565 E75.58938
G1 X79.565 Y40.199 E76.54114
G1 X79.565 Y39.183 E76.66246
G1 X84.183 Y34.565 E77.44264
G1 X83.168 Y34.565 E77.56396
G1 X79.565 Y38.168 E78.17256
G1 X79.565 Y37.152 E78.29389
G1 X82.152 Y34.565 E78.73091
G1 X81.136 Y34.565 E78.85224
G1 X79.565 Y36.136 E79.11768
G1 X79.565 Y35.120 E79.23900
G1 X80.120 Y34.565 E79.33287
M104 S210 ; set temperature
M140 S50 ; set bed temperature
G1 Z0.500 F7800.000
G1 X101.463 Y56.463 F7800.000
G1 F3600
G1 X78.537 Y56.463 E79.84617
G1 X78.537 Y33.537 E80.35948
G1 X101.463 Y33.537 E80.87279
G1 X101.463 Y56.403 E81.38475
G1 X102.001 Y57.001 F7800.000
G1 F3600
G1 X77.999 Y57.001 E81.92217
G1 X77.999 Y32.999 E82.45960
G1 X102.001 Y32.999 E82.99702
G1 X102.001 Y56.941 E83.53310
G1 X102.480 Y57.480 F7800.000
G1 F1800
G1 X77.520 Y57.480 E83.96742
G1 X77.520 Y32.520 E84.40175
G1 X102.480 Y32.520 E84.83607
G1 X102.480 Y57.420 E85.26936
G1 X102.094 Y57.376 F7800.000
G1 X101.134 Y34.285 F7800.000
G1 F1200
G1 X100.715 Y33.866 E85.28271
G1 X99.948 Y33.866 E85.29999
G1 X101.134 Y35.052 E85.33778
G1 X101.134 Y35.818 E85.35506
G1 X99.182 Y33.866 E85.41728
G1 X98.415 Y33.866 E85.43456
G1 X101.134 Y36.585 E85.52121
G1 X101.134 Y37.352 E85.53849
G1 X97.648 Y33.866 E85.64958
G1 X96.882 Y33.866 E85.66686
G1 X101.134 Y38.118 E85.80238
G1 X101.134 Y38.885 E85.81966
G1 X96.115 Y33.866 E85.97962
G1 X95.348 Y33.866 E85.99690
G1 X101.134 Y39.652 E86.18129
G1 X101.134 Y40.418 E86.19857
G1 X94.582 Y33.866 E86.40740
G1 X93.815 Y33.866 E86.42467
G1 X101.134 Y41.185 E86.65793
G1 X101.134 Y41.951 E86.67521
G1 X93.049 Y33.866 E86.93291
G1 X92.282 Y33.866 E86.95018
G1 X101.134 Y42.718 E87.23231
G1 X101.134 Y43.485 E87.24959
G1 X91.515 Y33.866 E87.55615
G1 X90.749 Y33.866 E87.57343
G1 X101.134 Y44.251 E87.90443
G1 X101.134 Y45.018 E87.92171
G1 X89.982 Y33.866 E88.27714
G1 X89.216 Y33.866 E88.29441
G1 X101.134 Y45.784 E88.67428
G1 X101.134 Y46.551 E88.69156
G1 X88.449 Y33.866 E89.09586
G1 X87.682 Y33.866 E89.11313
G1 X101.134 Y47.318 E89.54187
G1 X101.134 Y48.084 E89.55914
G1 X86.916 Y33.866 E90.01231
G1 X86.149 Y33.866 E90.02959
G1 X101.134 Y48.851 E90.50719
G1 X101.134 Y49.618 E90.52447
G1 X85.382 Y33.866 E91.02650
G1 X84.616 Y33.866 E91.04378
G1 X101.134 Y50.384 E91.57025
G1 X101.134 Y51.151 E91.58752
G1 X83.849 Y33.866 E92.13843
G1 X83.083 Y33.866 E92.15570
G1 X101.134 Y51.917 E92.73104
G1 X101.134 Y52.684 E92.74832
G1 X82.316 Y33.866 E93.34809
G1 X81.549 Y33.866 E93.36537
G1 X101.134 Y53.451 E93.98957
G1 X101.134 Y54.217 E94.00685
G1 X80.783 Y33.866 E94.65549
G1 X80.016 Y33.866 E94.67276
G1 X101.134 Y54.984 E95.34584
G1 X101.134 Y55.751 E95.36311
G1 X79.249 Y33.866 E96.06062
G1 X78.866 Y33.866 E96.06926
G1 X78.866 Y34.249 E96.07790
G1 X100.751 Y56.134 E96.77540
G1 X99.984 Y56.134 E96.79268
G1 X78.866 Y35.016 E97.46575
G1 X78.866 Y35.783 E97.48303
G1 X99.217 Y56.134 E98.13167
G1 X98.451 Y56.134 E98.14895
G1 X78.866 Y36.549 E98.77315
G1 X78.866 Y37.316 E98.79043
G1 X97.684 Y56.134 E99.39020
G1 X96.917 Y56.134 E99.40748
G1 X78.866 Y38.083 E99.98282
G1 X78.866 Y38.849 E100.00009
G1 X96.151 Y56.134 E100.55100
G1 X95.384 Y56.134 E100.56827
G1 X78.866 Y39.616 E101.09474
G1 X78.866 Y40.382 E101.11202
G1 X94.618 Y56.134 E101.61405
G1 X93.851 Y56.134 E101.63133
G1 X78.866 Y41.149 E102.10893
G1 X78.866 Y41.916 E102.12621
G1 X93.084 Y56.134 E102.57938
G1 X92.318 Y56.134 E102.59666
G1 X78.866 Y42.682 E103.02539
G1 X78.866 Y43.449 E103.04267
G1 X91.551 Y56.134 E103.44696
G1 X90.784 Y56.134 E103.46424
G1 X78.866 Y44.216 E103.84411
G1 X78.866 Y44.982 E103.86138
G1 X90.018 Y56.134 E104.21682
G1 X89.251 Y56.134 E104.23409
G1 X78.866 Y45.749 E104.56509
G1 X78.866 Y46.515 E104.58237
G1 X88.485 Y56.134 E104.88893
G1 X87.718 Y56.134 E104.90621
G1 X78.866 Y47.282 E105.18834
G1 X78.866 Y48.049 E105.20562
G1 X86.951 Y56.134 E105.46331
G1 X86.185 Y56.134 E105.48059
G1 X78.866 Y48.815 E105.71385
G1 X78.866 Y49.582 E105.73113
G1 X85.418 Y56.134 E105.93995
G1 X84.652 Y56.134 E105.95723
G1 X78.866 Y50.348 E106.14162
G1 X78.866 Y51.115 E106.15890
G1 X83.885 Y56.134 E106.31886
G1 X83.118 Y56.134 E106.33614
G1 X78.866 Y51.882 E106.47166
G1 X78.866 Y52.648 E106.48894
G1 X82.352 Y56.134 E106.60003
G1 X81.585 Y56.134 E106.61731
G1 X78.866 Y53.415 E106.70397
G1 X78.866 Y54.182 E106.72125
G1 X80.818 Y56.134 E106.78347
G1 X80.052 Y56.134 E106.80075
G1 X78.866 Y54.948 E106.83854
G1 X78.866 Y55.715 E106.85581
G1 X79.285 Y56.134 E106.86916
G1 Z0.600 F7800.000
G1 X101.463 Y56.463 F7800.000
G1 F3600
G1 X78.537 Y56.463 E107.38247
G1 X78.537 Y33.537 E107.89578
G1 X101.463 Y33.537 E108.40909
G1 X101.463 Y56.403 E108.92105
G1 X102.001 Y57.001 F7800.000
G1 F3600
G1 X77.999 Y57.001 E109.45847
G1 X77.999 Y32.999 E109.99589
G1 X102.001 Y32.999 E110.53332
G1 X102.001 Y56.941 E111.06940
G1 X102.480 Y57.480 F7800.000
G1 F1800
G1 X77.520 Y57.480 E111.50372
G1 X77.520 Y32.520 E111.93805
G1 X102.480 Y32.520 E112.37237
G1 X102.480 Y57.420 E112.80565
G1 X102.094 Y57.376 F7800.000
G1 X100.715 Y56.134 F7800.000
G1 F1200
G1 X101.134 Y55.715 E112.81901
G1 X101.134 Y54.948 E112.83629
G1 X99.948 Y56.134 E112.87408
G1 X99.182 Y56.134 E112.89135
G1 X101.134 Y54.182 E112.95358
G1 X101.134 Y53.415 E112.97085
G1 X98.415 Y56.134 E113.05751
G1 X97.648 Y56.134 E113.07479
G1 X101.134 Y52.648 E113.18588
G1 X101.134 Y51.882 E113.20316
G1 X96.882 Y56.134 E113.33868
G1 X96.115 Y56.134 E113.35596
G1 X101.134 Y51.115 E113.51592
G1 X101.134 Y50.348 E113.53320
G1 X95.348 Y56.134 E113.71759
G1 X94.582 Y56.134 E113.73487
G1 X101.134 Y49.582 E113.94369
G1 X101.134 Y48.815 E113.96097
G1 X93.815 Y56.134 E114.19423
G1 X93.049 Y56.134 E114.21151
G1 X101.134 Y48.049 E114.46921
G1 X101.134 Y47.282 E114.48648
G1 X92.282 Y56.134 E114.76861
G1 X91.515 Y56.134 E114.78589
G1 X101.134 Y46.515 E115.09245
G1 X101.134 Y45.749 E115.10973
G1 X90.749 Y56.134 E115.44073
G1 X89.982 Y56.134 E115.45800
G1 X101.134 Y44.982 E115.81343
G1 X101.134 Y44.216 E115.83071
G1 X89.216 Y56.134 E116.21058
G1 X88.449 Y56.134 E116.22785
G1 X101.134 Y43.449 E116.63215
G1 X101.134 Y42.682 E116.64943
G1 X87.682 Y56.134 E117.07816
G1 X86.916 Y56.134 E117.09544
G1 X101.134 Y41.916 E117.54861
G1 X101.134 Y41.149 E117.56588
G1 X86.149 Y56.134 E118.04349
G1 X85.382 Y56.134 E118.06076
G1 X101.134 Y40.382 E118.56280
G1 X101.134 Y39.616 E118.58008
G1 X84.616 Y56.134 E119.10654
G1 X83.849 Y56.134 E119.12382
G1 X101.134 Y38.849 E119.67472
G1 X101.134 Y38.083 E119.69200
G1 X83.083 Y56.134 E120.26734
G1 X82.316 Y56.134 E120.28462
G1 X101.134 Y37.316 E120.88439
G1 X101.134 Y36.549 E120.90166
G1 X81.549 Y56.134 E121.52587
G1 X80.783 Y56.134 E121.54315
G1 X101.134 Y35.783 E122.19178
G1 X101.134 Y35.016 E122.20906
G1 X80.016 Y56.134 E122.88213
G1 X79.249 Y56.134 E122.89941
G1 X101.134 Y34.249 E123.59692
G1 X101.134 Y33.866 E123.60556
G1 X100.751 Y33.866 E123.61419
G1 X78.866 Y55.751 E124.31170
G1 X78.866 Y54.984 E124.32898
G1 X99.984 Y33.866 E125.00205
G1 X99.217 Y33.866 E125.01933
G1 X78.866 Y54.217 E125.66797
G1 X78.866 Y53.451 E125.68525
G1 X98.451 Y33.866 E126.30945
G1 X97.684 Y33.866 E126.32673
G1 X78.866 Y52.684 E126.92650
G1 X78.866 Y51.917 E126.94378
G1 X96.917 Y33.866 E127.51911
G1 X96.151 Y33.866 E127.53639
G1 X78.866 Y51.151 E128.08729
G1 X78.866 Y50.384 E128.10457
G1 X95.384 Y33.866 E128.63104
G1 X94.618 Y33.866 E128.64832
G1 X78.866 Y49.618 E129.15035
G1 X78.866 Y48.851 E129.16763
G1 X93.851 Y33.866 E129.64523
G1 X93.084 Y33.866 E129.66251
G1 X78.866 Y48.084 E130.11567
G1 X78.866 Y47.318 E130.13295
G1 X92.318 Y33.866 E130.56169
G1 X91.551 Y33.866 E130.57896
G1 X78.866 Y46.551 E130.98326
G1 X78.866 Y45.784 E131.00054
G1 X90.784 Y33.866 E131.38040
G1 X90.018 Y33.866 E131.39768
G1 X78.866 Y45.018 E131.75311
G1 X78.866 Y44.251 E131.77039
G1 X89.251 Y33.866 E132.10139
G1 X88.485 Y33.866 E132.11866
G1 X78.866 Y43.485 E132.42523
G1 X78.866 Y42.718 E132.44251
G1 X87.718 Y33.866 E132.72463
G1 X86.951 Y33.866 E132.74191
G1 X78.866 Y41.951 E132.99961
G1 X78.866 Y41.185 E133.01688
G1 X86.185 Y33.866 E133.25015
G1 X85.418 Y33.866 E133.26742
G1 X78.866 Y40.418 E133.47625
G1 X78.866 Y39.652 E133.49353
G1 X84.652 Y33.866 E133.67792
G1 X83.885 Y33.866 E133.69520
G1 X78.866 Y38.885 E133.85516
G1 X78.866 Y38.118 E133.87244
G1 X83.118 Y33.866 E134.00796
G1 X82.352 Y33.866 E134.02524
G1 X78.866 Y37.352 E134.13633
G1 X78.866 Y36.585 E134.15361
G1 X81.585 Y33.866 E134.24027
G1 X80.818 Y33.866 E134.25754
G1 X78.866 Y35.818 E134.31977
G1 X78.866 Y35.052 E134.33704
G1 X80.052 Y33.866 E134.37483
G1 X79.285 Y33.866 E134.39211
G1 X78.866 Y34.285 E134.40546
M106 S239.7
G1 Z0.700 F7800.000
G1 X101.463 Y56.463 F7800.000
G1 F3600
G1 X78.537 Y56.463 E134.91877
G1 X78.537 Y33.537 E135.43208
G1 X101.463 Y33.537 E135.94538
G1 X101.463 Y56.403 E136.45735
G1 X102.001 Y57.001 F7800.000
G1 F3600
G1 X77.999 Y57.001 E136.99477
G1 X77.999 Y32.999 E137.53219
G1 X102.001 Y32.999 E138.06961
G1 X102.001 Y56.941 E138.60569
G1 X102.480 Y57.480 F7800.000
G1 F1800
G1 X77.520 Y57.480 E139.04002
G1 X77.520 Y32.520 E139.47434
G1 X102.480 Y32.520 E139.90867
G1 X102.480 Y57.420 E140.34195
G1 X102.094 Y57.376 F7800.000
G1 X101.225 Y53.139 F7800.000
G1 F4800
G1 X90.448 Y56.027 E140.56391
G1 X86.992 Y56.225 F7800.000
G1 F4800
G1 X93.008 Y33.775 E141.02630
G1 X89.552 Y33.973 F7800.000
G1 F4800
G1 X78.775 Y36.861 E141.24826
G1 X78.775 Y44.292 F7800.000
G1 F4800
G1 X101.225 Y38.277 E141.71064
G1 X101.152 Y35.849 F7800.000
G1 F4800
G1 X99.151 Y33.848 E141.76696
G1 X88.999 Y33.848 E141.96893
G1 X101.152 Y46.001 E142.31087
G1 X101.152 Y56.152 E142.51283
G1 X78.848 Y33.848 E143.14040
G1 X78.848 Y43.999 E143.34236
G1 X91.001 Y56.152 E143.68430
G1 X80.849 Y56.152 E143.88627
G1 X78.848 Y54.151 E143.94258
G1 X79.561 Y56.225 F7800.000
G1 F4800
G1 X85.576 Y33.775 E144.40497
G1 X100.439 Y33.775 F7800.000
G1 F4800
G1 X94.424 Y56.225 E144.86736
G1 X101.225 Y45.708 F7800.000
G1 F4800
G1 X78.775 Y51.723 E145.32975
G1 Z0.800 F7800.000
G1 X101.463 Y56.463 F7800.000
G1 F3600
G1 X78.537 Y56.463 E145.84306
G1 X78.537 Y33.537 E146.35637
G1 X101.463 Y33.537 E146.86967
G1 X101.463 Y56.403 E147.38164
G1 X102.001 Y57.001 F7800.000
G1 F3600
G1 X77.999 Y57.001 E147.91906
G1 X77.999 Y32.999 E148.45648
G1 X102.001 Y32.999 E148.99390
G1 X102.001 Y56.941 E149.52998
G1 X102.480 Y57.480 F7800.000
G1 F1800
G1 X77.520 Y57.480 E149.96431
G1 X77.520 Y32.520 E150.39863
G1 X102.480 Y32.520 E150.83296
G1 X102.480 Y57.420 E151.26624
G1 X102.094 Y57.376 F7800.000
G1 X101.225 Y53.139 F7800.000
G1 F4800
G1 X90.448 Y56.027 E151.48820
G1 X86.992 Y56.225 F7800.000
G1 F4800
G1 X93.008 Y33.775 E151.95059
G1 X89.552 Y33.973 F7800.000
G1 F4800
G1 X78.775 Y36.861 E152.17255
G1 X78.775 Y44.292 F7800.000
G1 F4800
G1 X101.225 Y38.277 E152.63494
G1 X101.152 Y35.849 F7800.000
G1 F4800
G1 X99.151 Y33.848 E152.69125
G1 X88.999 Y33.848 E152.89322
G1 X101.152 Y46.001 E153.23516
G1 X101.152 Y56.152 E153.43712
G1 X78.848 Y33.848 E154.06469
G1 X78.848 Y43.999 E154.26665
G1 X91.001 Y56.152 E154.60859
G1 X80.849 Y56.152 E154.81056
G1 X78.848 Y54.151 E154.86687
G1 X79.561 Y56.225 F7800.000
G1 F4800
G1 X85.576 Y33.775 E155.32926
G1 X100.439 Y33.775 F7800.000
G1 F4800
G1 X94.424 Y56.225 E155.79165
G1 X101.225 Y45.708 F7800.000
G1 F4800
