; generated by Slic3r 1.3.0 on 2019-09-11 at 02:16:45

; external perimeters extrusion width = 0.44mm (3.38mm^3/s)
; perimeters extrusion width = 0.48mm (7.54mm^3/s)
; infill extrusion width = 0.48mm (10.05mm^3/s)
; solid infill extrusion width = 0.48mm (2.51mm^3/s)
; top infill extrusion width = 0.48mm (1.88mm^3/s)

M107
M190 S55 ; set bed temperature and wait for it to be reached
M104 S205 ; set temperature
G28 ; home all axes
G1 Z5 F5000 ; lift nozzle
; Filament gcode

M109 S205 ; set temperature and wait for it to be reached
G21 ; set units to millimeters
G90 ; use absolute coordinates
M82 ; use absolute distances for extrusion
G92 E0
G1 Z0.400 F7800.000
G1 E-2.00000 F2400.00000
G92 E0
G1 X76.517 Y76.610 F7800.000
G1 E2.00000 F2400.00000
G1 F1800
G1 X77.432 Y75.721 E2.15150
G1 X78.421 Y74.824 E2.31004
G1 X79.739 Y73.709 E2.51520
G1 X80.949 Y72.770 E2.69705
G1 X82.405 Y71.733 E2.90926
G1 X83.687 Y70.897 E3.09112
G1 X85.001 Y70.111 E3.27297
G1 X86.118 Y69.494 E3.42448
G1 X87.714 Y68.690 E3.63668
G1 X88.874 Y68.160 E3.78818
G1 X90.107 Y67.648 E3.94673
G1 X91.724 Y67.041 E4.15188
G1 X93.423 Y66.488 E4.36409
G1 X94.650 Y66.141 E4.51559
G1 X95.947 Y65.821 E4.67414
G1 X97.637 Y65.466 E4.87929
G1 X99.148 Y65.215 E5.06114
G1 X100.921 Y64.994 E5.27335
G1 X102.447 Y64.868 E5.45521
G1 X103.721 Y64.807 E5.60671
G1 X105.252 Y64.788 E5.78857
G1 X106.783 Y64.827 E5.97042
G1 X108.566 Y64.946 E6.18263
G1 X109.834 Y65.079 E6.33413
G1 X111.156 Y65.264 E6.49268
G1 X112.858 Y65.563 E6.69783
G1 X114.353 Y65.890 E6.87969
G1 X116.081 Y66.345 E7.09190
G1 X117.545 Y66.795 E7.27375
G1 X118.750 Y67.212 E7.42525
G1 X120.179 Y67.763 E7.60711
G1 X121.818 Y68.474 E7.81932
G1 X123.197 Y69.141 E8.00117
G1 X124.325 Y69.736 E8.15267
G1 X125.653 Y70.498 E8.33453
G1 X126.952 Y71.309 E8.51638
G1 X128.427 Y72.318 E8.72860
G1 X129.452 Y73.077 E8.88009
G1 X130.649 Y74.031 E9.06195
G1 X132.000 Y75.201 E9.27416
G1 X133.115 Y76.251 E9.45602
G1 X134.012 Y77.157 E9.60752
G1 X134.918 Y78.138 E9.76606
G1 X136.047 Y79.446 E9.97121
G1 X136.997 Y80.646 E10.15307
G1 X138.047 Y82.092 E10.36528
G1 X138.895 Y83.367 E10.54714
G1 X139.694 Y84.673 E10.72899
G1 X140.322 Y85.784 E10.88049
G1 X141.028 Y87.143 E11.06235
G1 X141.785 Y88.761 E11.27456
G1 X142.282 Y89.936 E11.42606
G1 X142.828 Y91.366 E11.60791
G1 X143.320 Y92.816 E11.78977
G1 X143.823 Y94.531 E12.00198
G1 X144.136 Y95.767 E12.15348
G1 X144.459 Y97.264 E12.33533
G1 X144.725 Y98.772 E12.51718
G1 X144.962 Y100.543 E12.72940
G1 X145.103 Y102.068 E12.91125
G1 X145.176 Y103.341 E13.06275
G1 X145.210 Y104.872 E13.24461
G1 X145.186 Y106.403 E13.42646
G1 X145.084 Y108.187 E13.63867
G1 X144.933 Y109.711 E13.82053
G1 X144.764 Y110.975 E13.97203
G1 X144.507 Y112.485 E14.15388
G1 X144.136 Y114.233 E14.36609
G1 X143.823 Y115.469 E14.51759
G1 X143.397 Y116.940 E14.69945
G1 X142.914 Y118.393 E14.88131
G1 X142.282 Y120.064 E15.09351
G1 X141.681 Y121.473 E15.27537
G1 X141.140 Y122.628 E15.42687
G1 X140.443 Y123.991 E15.60873
G1 X139.694 Y125.327 E15.79058
G1 X138.757 Y126.848 E16.00279
G1 X138.047 Y127.908 E16.15429
G1 X137.266 Y128.991 E16.31284
G1 X136.208 Y130.356 E16.51799
G1 X135.051 Y131.718 E16.73020
G1 X134.189 Y132.658 E16.88170
G1 X133.115 Y133.749 E17.06355
G1 X132.000 Y134.799 E17.24541
G1 X130.649 Y135.969 E17.45762
G1 X129.452 Y136.923 E17.63948
G1 X128.427 Y137.682 E17.79098
G1 X127.166 Y138.551 E17.97283
G1 X125.653 Y139.502 E18.18504
G1 X124.549 Y140.140 E18.33654
G1 X123.370 Y140.767 E18.49509
G1 X121.818 Y141.526 E18.70024
G1 X120.179 Y142.237 E18.91245
G1 X118.990 Y142.700 E19.06395
G1 X117.730 Y143.141 E19.22250
G1 X116.081 Y143.655 E19.42765
G1 X114.602 Y144.049 E19.60951
G1 X112.858 Y144.437 E19.82172
G1 X111.603 Y144.667 E19.97321
G1 X110.282 Y144.862 E20.13176
G1 X108.565 Y145.055 E20.33692
G1 X107.038 Y145.161 E20.51877
G1 X105.252 Y145.212 E20.73098
G1 X103.976 Y145.200 E20.88248
G1 X102.447 Y145.132 E21.06433
G1 X100.921 Y145.006 E21.24619
G1 X99.401 Y144.822 E21.42804
G1 X97.637 Y144.534 E21.64025
G1 X96.137 Y144.225 E21.82211
G1 X94.898 Y143.924 E21.97361
G1 X93.423 Y143.512 E22.15547
G1 X91.965 Y143.043 E22.33733
G1 X90.288 Y142.427 E22.54953
G1 X88.874 Y141.840 E22.73139
G1 X87.714 Y141.310 E22.88289
G1 X86.344 Y140.625 E23.06474
G1 X84.780 Y139.762 E23.27695
G1 X83.687 Y139.103 E23.42845
G1 X82.405 Y138.267 E23.61031
G1 X81.154 Y137.383 E23.79217
G1 X79.739 Y136.291 E24.00438
G1 X78.760 Y135.475 E24.15587
G1 X77.764 Y134.585 E24.31443
G1 X76.517 Y133.390 E24.51957
G1 X75.457 Y132.285 E24.70143
G1 X74.274 Y130.946 E24.91364
G1 X73.308 Y129.758 E25.09549
G1 X72.539 Y128.740 E25.24700
G1 X71.659 Y127.487 E25.42885
G1 X70.827 Y126.202 E25.61070
G1 X69.919 Y124.663 E25.82292
G1 X69.196 Y123.313 E26.00477
G1 X68.633 Y122.168 E26.15627
G1 X68.006 Y120.771 E26.33812
G1 X67.432 Y119.352 E26.51998
G1 X66.832 Y117.669 E26.73219
G1 X66.449 Y116.452 E26.88369
G1 X66.093 Y115.165 E27.04224
G1 X65.689 Y113.486 E27.24739
G1 X65.395 Y111.983 E27.42925
G1 X65.124 Y110.217 E27.64146
G1 X64.978 Y108.950 E27.79296
G1 X64.857 Y107.423 E27.97481
G1 X64.789 Y105.638 E28.18702
G1 X64.789 Y104.362 E28.33852
G1 X64.842 Y102.832 E28.52037
G1 X64.954 Y101.305 E28.70223
G1 X65.158 Y99.530 E28.91444
G1 X65.351 Y98.269 E29.06594
G1 X65.599 Y96.957 E29.22449
G1 X65.978 Y95.272 E29.42964
G1 X66.449 Y93.548 E29.64185
G1 X66.832 Y92.331 E29.79335
G1 X67.342 Y90.887 E29.97520
G1 X67.906 Y89.464 E30.15706
G1 X68.524 Y88.063 E30.33892
G1 X69.313 Y86.460 E30.55113
G1 X70.045 Y85.115 E30.73298
G1 X70.693 Y84.016 E30.88448
G1 X71.517 Y82.725 E31.06634
G1 X72.389 Y81.467 E31.24819
G1 X73.466 Y80.042 E31.46040
G1 X74.274 Y79.054 E31.61190
G1 X75.284 Y77.903 E31.79376
G1 X76.475 Y76.653 E31.99884
G1 E29.99884 F2400.00000
G92 E0
G1 X126.655 Y126.529 F7800.000
G1 E2.00000 F2400.00000
G1 F1800
G1 X126.037 Y127.141 E2.10328
G1 X125.123 Y127.975 E2.25033
G1 X124.175 Y128.772 E2.39735
G1 X123.203 Y129.524 E2.54335
G1 X122.194 Y130.242 E2.69039
G1 X121.150 Y130.923 E2.83847
G1 X120.086 Y131.556 E2.98551
G1 X118.997 Y132.146 E3.13254
G1 X117.894 Y132.687 E3.27853
G1 X116.761 Y133.187 E3.42556
G1 X115.609 Y133.641 E3.57261
G1 X114.431 Y134.050 E3.72069
G1 X113.246 Y134.408 E3.86773
G1 X112.048 Y134.719 E4.01476
G1 X110.846 Y134.978 E4.16075
G1 X109.627 Y135.191 E4.30778
G1 X108.399 Y135.353 E4.45482
G1 X107.166 Y135.466 E4.60186
G1 X105.921 Y135.529 E4.74994
G1 X104.683 Y135.542 E4.89699
G1 X103.445 Y135.504 E5.04403
G1 X102.211 Y135.416 E5.19105
G1 X100.989 Y135.279 E5.33705
G1 X99.765 Y135.092 E5.48408
G1 X98.541 Y134.853 E5.63216
G1 X97.337 Y134.567 E5.77920
G1 X96.153 Y134.235 E5.92520
G1 X94.968 Y133.850 E6.07328
G1 X93.807 Y133.420 E6.22031
G1 X92.672 Y132.946 E6.36631
G1 X91.550 Y132.424 E6.51333
G1 X90.449 Y131.857 E6.66038
G1 X89.365 Y131.240 E6.80846
G1 X88.315 Y130.585 E6.95550
G1 X87.292 Y129.888 E7.10254
G1 X86.298 Y129.150 E7.24958
G1 X85.334 Y128.373 E7.39661
G1 X84.410 Y127.563 E7.54260
G1 X83.512 Y126.710 E7.68964
G1 X82.644 Y125.815 E7.83772
G1 X81.819 Y124.892 E7.98476
G1 X81.032 Y123.936 E8.13179
G1 X80.289 Y122.957 E8.27778
G1 X79.582 Y121.941 E8.42481
G1 X78.916 Y120.897 E8.57186
G1 X78.289 Y119.819 E8.71994
G1 X77.711 Y118.724 E8.86697
G1 X77.180 Y117.615 E9.01297
G1 X76.692 Y116.478 E9.16000
G1 X76.250 Y115.321 E9.30703
G1 X75.856 Y114.148 E9.45407
G1 X75.509 Y112.959 E9.60112
G1 X75.208 Y111.749 E9.74919
G1 X74.959 Y110.536 E9.89623
G1 X74.761 Y109.323 E10.04223
G1 X74.611 Y108.094 E10.18926
G1 X74.510 Y106.852 E10.33734
G1 X74.460 Y105.615 E10.48439
G1 X74.460 Y104.377 E10.63142
G1 X74.510 Y103.148 E10.77741
G1 X74.610 Y101.914 E10.92444
G1 X74.760 Y100.685 E11.07148
G1 X74.961 Y99.455 E11.21956
G1 X75.210 Y98.242 E11.36661
G1 X75.509 Y97.041 E11.51364
G1 X75.853 Y95.861 E11.65964
G1 X76.250 Y94.679 E11.80771
G1 X76.692 Y93.522 E11.95476
G1 X77.181 Y92.385 E12.10179
G1 X77.715 Y91.268 E12.24883
G1 X78.294 Y90.173 E12.39586
G1 X78.912 Y89.111 E12.54185
G1 X79.577 Y88.067 E12.68889
G1 X80.289 Y87.043 E12.83697
G1 X81.037 Y86.057 E12.98401
G1 X81.825 Y85.101 E13.13105
G1 X82.650 Y84.179 E13.27808
G1 X83.506 Y83.296 E13.42408
G1 X84.410 Y82.437 E13.57215
G1 X85.341 Y81.622 E13.71920
G1 X86.305 Y80.844 E13.86624
G1 X87.299 Y80.107 E14.01327
G1 X88.322 Y79.410 E14.16031
G1 X89.373 Y78.755 E14.30734
G1 X90.442 Y78.148 E14.45334
G1 X91.550 Y77.576 E14.60141
G1 X92.672 Y77.054 E14.74846
G1 X93.815 Y76.577 E14.89549
G1 X94.976 Y76.147 E15.04252
G1 X96.145 Y75.767 E15.18851
G1 X97.337 Y75.433 E15.33555
G1 X98.550 Y75.145 E15.48363
G1 X99.765 Y74.908 E15.63068
G1 X100.989 Y74.721 E15.77771
G1 X102.219 Y74.583 E15.92474
G1 X103.446 Y74.496 E16.07073
G1 X104.683 Y74.458 E16.21777
G1 X105.930 Y74.471 E16.36585
G1 X107.166 Y74.534 E16.51289
G1 X108.390 Y74.646 E16.65888
G1 X109.618 Y74.808 E16.80591
G1 X110.837 Y75.020 E16.95295
G1 X112.048 Y75.281 E17.09999
G1 X113.255 Y75.594 E17.24807
G1 X114.440 Y75.953 E17.39511
G1 X115.601 Y76.356 E17.54110
G1 X116.753 Y76.810 E17.68814
G1 X117.894 Y77.313 E17.83622
G1 X119.005 Y77.858 E17.98326
G1 X120.094 Y78.448 E18.13030
G1 X121.157 Y79.082 E18.27733
G1 X122.187 Y79.753 E18.42332
G1 X123.196 Y80.470 E18.57035
G1 X124.175 Y81.228 E18.71739
G1 X125.123 Y82.025 E18.86443
G1 X126.044 Y82.865 E19.01251
G1 X126.923 Y83.737 E19.15956
G1 X127.767 Y84.642 E19.30659
G1 X128.568 Y85.575 E19.45258
G1 X129.336 Y86.546 E19.59961
G1 X130.063 Y87.548 E19.74665
G1 X130.755 Y88.585 E19.89472
G1 X131.394 Y89.635 E20.04073
G1 X131.995 Y90.718 E20.18777
G1 X132.556 Y91.831 E20.33584
G1 X133.067 Y92.959 E20.48289
G1 X133.532 Y94.107 E20.62993
G1 X133.950 Y95.272 E20.77697
G1 X134.320 Y96.453 E20.92399
G1 X134.640 Y97.640 E21.06999
G1 X134.914 Y98.847 E21.21702
G1 X135.141 Y100.073 E21.36510
G1 X135.315 Y101.299 E21.51215
G1 X135.440 Y102.531 E21.65919
G1 X135.516 Y103.767 E21.80621
G1 X135.540 Y104.996 E21.95221
G1 X135.516 Y106.233 E22.09924
G1 X135.440 Y107.478 E22.24732
G1 X135.314 Y108.710 E22.39437
G1 X135.139 Y109.935 E22.54141
G1 X134.914 Y111.153 E22.68843
G1 X134.643 Y112.352 E22.83443
G1 X134.320 Y113.547 E22.98146
G1 X133.950 Y114.728 E23.12850
G1 X133.529 Y115.902 E23.27657
G1 X133.067 Y117.041 E23.42257
G1 X132.556 Y118.169 E23.56960
G1 X132.000 Y119.275 E23.71665
G1 X131.394 Y120.365 E23.86472
G1 X130.755 Y121.415 E24.01073
G1 X130.063 Y122.452 E24.15880
G1 X129.336 Y123.454 E24.30585
G1 X128.568 Y124.425 E24.45289
G1 X127.761 Y125.364 E24.59991
G1 X126.698 Y126.487 E24.78355
G1 X126.153 Y126.021 F7800.000
G1 F1800
G1 X125.545 Y126.623 E24.88511
G1 X124.652 Y127.438 E25.02871
G1 X123.727 Y128.216 E25.17231
G1 X122.777 Y128.951 E25.31487
G1 X121.792 Y129.652 E25.45847
G1 X120.772 Y130.317 E25.60310
G1 X119.733 Y130.935 E25.74670
G1 X118.670 Y131.511 E25.89030
G1 X117.592 Y132.040 E26.03286
G1 X116.486 Y132.528 E26.17646
G1 X115.361 Y132.971 E26.32006
G1 X114.211 Y133.371 E26.46469
G1 X113.053 Y133.721 E26.60829
G1 X111.883 Y134.024 E26.75189
G1 X110.709 Y134.277 E26.89445
G1 X109.518 Y134.485 E27.03805
G1 X108.320 Y134.644 E27.18165
G1 X107.116 Y134.754 E27.32525
G1 X105.899 Y134.816 E27.46988
G1 X104.690 Y134.828 E27.61348
G1 X103.482 Y134.791 E27.75708
G1 X102.276 Y134.705 E27.90067
G1 X101.083 Y134.571 E28.04324
G1 X99.888 Y134.388 E28.18684
G1 X98.692 Y134.155 E28.33146
G1 X97.516 Y133.876 E28.47506
G1 X96.360 Y133.551 E28.61763
G1 X95.202 Y133.175 E28.76226
G1 X94.068 Y132.755 E28.90586
G1 X92.960 Y132.293 E29.04843
G1 X91.864 Y131.783 E29.19202
G1 X90.790 Y131.228 E29.33562
G1 X89.731 Y130.627 E29.48025
G1 X88.705 Y129.987 E29.62385
G1 X87.706 Y129.306 E29.76745
G1 X86.735 Y128.586 E29.91105
G1 X85.794 Y127.826 E30.05464
G1 X84.891 Y127.035 E30.19721
G1 X84.015 Y126.202 E30.34081
G1 X83.167 Y125.328 E30.48544
G1 X82.361 Y124.427 E30.62904
G1 X81.592 Y123.493 E30.77263
G1 X80.867 Y122.537 E30.91520
G1 X80.176 Y121.544 E31.05880
G1 X79.526 Y120.525 E31.20240
G1 X78.914 Y119.472 E31.34703
G1 X78.349 Y118.403 E31.49062
G1 X77.831 Y117.320 E31.63319
G1 X77.354 Y116.209 E31.77679
G1 X76.923 Y115.080 E31.92038
G1 X76.537 Y113.934 E32.06398
G1 X76.198 Y112.773 E32.20758
G1 X75.905 Y111.591 E32.35221
G1 X75.662 Y110.407 E32.49581
G1 X75.468 Y109.222 E32.63838
G1 X75.321 Y108.022 E32.78198
G1 X75.223 Y106.808 E32.92660
G1 X75.174 Y105.600 E33.07021
G1 X75.174 Y104.391 E33.21380
G1 X75.223 Y103.192 E33.35637
G1 X75.320 Y101.987 E33.49996
G1 X75.467 Y100.786 E33.64357
G1 X75.663 Y99.585 E33.78819
G1 X75.907 Y98.400 E33.93180
G1 X76.198 Y97.227 E34.07539
G1 X76.534 Y96.074 E34.21796
G1 X76.923 Y94.920 E34.36259
G1 X77.354 Y93.791 E34.50619
G1 X77.831 Y92.680 E34.64979
G1 X78.353 Y91.589 E34.79338
G1 X78.918 Y90.520 E34.93698
G1 X79.522 Y89.482 E35.07955
G1 X80.172 Y88.463 E35.22314
G1 X80.867 Y87.463 E35.36777
G1 X81.598 Y86.500 E35.51137
G1 X82.367 Y85.567 E35.65497
G1 X83.173 Y84.666 E35.79857
G1 X84.009 Y83.804 E35.94114
G1 X84.891 Y82.965 E36.08576
G1 X85.801 Y82.168 E36.22937
G1 X86.742 Y81.409 E36.37296
G1 X87.713 Y80.689 E36.51656
G1 X88.712 Y80.008 E36.66016
G1 X89.738 Y79.369 E36.80375
G1 X90.782 Y78.776 E36.94633
G1 X91.864 Y78.217 E37.09095
G1 X92.960 Y77.707 E37.23455
G1 X94.076 Y77.242 E37.37815
G1 X95.210 Y76.822 E37.52174
G1 X96.352 Y76.451 E37.66431
G1 X97.516 Y76.124 E37.80791
G1 X98.701 Y75.843 E37.95254
G1 X99.888 Y75.612 E38.09614
G1 X101.083 Y75.429 E38.23974
G1 X102.284 Y75.294 E38.38333
G1 X103.482 Y75.209 E38.52590
G1 X104.690 Y75.172 E38.66950
G1 X105.908 Y75.185 E38.81413
G1 X107.116 Y75.246 E38.95773
G1 X108.311 Y75.355 E39.10029
G1 X109.510 Y75.514 E39.24389
G1 X110.701 Y75.721 E39.38749
G1 X111.883 Y75.976 E39.53109
G1 X113.062 Y76.282 E39.67572
G1 X114.219 Y76.632 E39.81931
G1 X115.353 Y77.026 E39.96188
G1 X116.478 Y77.469 E40.10548
G1 X117.592 Y77.960 E40.25011
G1 X118.678 Y78.493 E40.39371
G1 X119.740 Y79.069 E40.53731
G1 X120.779 Y79.688 E40.68090
G1 X121.785 Y80.343 E40.82347
G1 X122.770 Y81.044 E40.96707
G1 X123.726 Y81.784 E41.11066
G1 X124.652 Y82.562 E41.25427
G1 X125.551 Y83.383 E41.39889
G1 X126.411 Y84.234 E41.54250
G1 X127.235 Y85.119 E41.68609
G1 X128.016 Y86.029 E41.82866
G1 X128.766 Y86.978 E41.97225
G1 X129.477 Y87.956 E42.11585
G1 X130.152 Y88.969 E42.26048
G1 X130.777 Y89.994 E42.40305
G1 X131.364 Y91.052 E42.54665
G1 X131.911 Y92.139 E42.69128
G1 X132.410 Y93.241 E42.83488
G1 X132.864 Y94.361 E42.97848
G1 X133.273 Y95.499 E43.12208
G1 X133.634 Y96.653 E43.26567
G1 X133.947 Y97.812 E43.40824
G1 X134.215 Y98.991 E43.55184
G1 X134.436 Y100.189 E43.69646
G1 X134.606 Y101.386 E43.84007
G1 X134.729 Y102.589 E43.98366
G1 X134.802 Y103.795 E44.12726
G1 X134.826 Y104.996 E44.26983
G1 X134.802 Y106.205 E44.41342
G1 X134.728 Y107.420 E44.55805
G1 X134.605 Y108.623 E44.70165
G1 X134.434 Y109.820 E44.84525
G1 X134.215 Y111.009 E44.98885
G1 X133.949 Y112.180 E45.13142
G1 X133.635 Y113.347 E45.27501
G1 X133.273 Y114.501 E45.41861
G1 X132.861 Y115.647 E45.56324
G1 X132.410 Y116.759 E45.70581
G1 X131.911 Y117.861 E45.84940
G1 X131.368 Y118.941 E45.99300
G1 X130.777 Y120.005 E46.13763
G1 X130.152 Y121.031 E46.28020
G1 X129.477 Y122.044 E46.42483
G1 X128.766 Y123.022 E46.56843
G1 X128.016 Y123.971 E46.71203
G1 X127.229 Y124.888 E46.85562
G1 X126.195 Y125.979 E47.03411
G1 X126.258 Y126.407 F7800.000
G1 E45.03411 F2400.00000
G92 E0
G1 X127.969 Y127.820 F7800.000
G1 E2.00000 F2400.00000
G1 F1800
G1 X127.568 Y128.225 E2.06766
G1 X126.667 Y129.067 E2.21412
G1 X125.735 Y129.875 E2.36058
G1 X124.773 Y130.646 E2.50704
G1 X123.782 Y131.381 E2.65349
G1 X122.765 Y132.077 E2.79995
G1 X121.721 Y132.733 E2.94641
G1 X120.653 Y133.350 E3.09287
G1 X119.733 Y133.835 E3.21635
G1 X118.448 Y134.460 E3.38610
G1 X117.319 Y134.950 E3.53222
G1 X116.170 Y135.397 E3.67868
G1 X115.005 Y135.801 E3.82514
G1 X113.825 Y136.159 E3.97160
G1 X112.632 Y136.473 E4.11805
G1 X111.428 Y136.741 E4.26451
G1 X110.215 Y136.962 E4.41097
G1 X109.186 Y137.110 E4.53445
G1 X107.766 Y137.267 E4.70420
G1 X106.538 Y137.349 E4.85032
G1 X105.305 Y137.384 E4.99678
G1 X104.072 Y137.372 E5.14324
G1 X102.840 Y137.314 E5.28970
G1 X101.612 Y137.208 E5.43615
G1 X100.388 Y137.056 E5.58261
G1 X99.171 Y136.857 E5.72907
