; generated by Slic3r 1.3.0 on 2019-09-08 at 08:55:18

; external perimeters extrusion width = 0.44mm (1.26mm^3/s)
; perimeters extrusion width = 0.56mm (3.23mm^3/s)
; infill extrusion width = 0.50mm (3.83mm^3/s)
; solid infill extrusion width = 0.56mm (1.08mm^3/s)
; top infill extrusion width = 0.56mm (0.81mm^3/s)

M107
M190 S55 ; set bed temperature and wait for it to be reached
M104 S215 ; set temperature
G28 ; home all axes
G1 Z5 F5000 ; lift nozzle
G1 X41 Y3
G92 X0 Y0 Z5
; Filament gcode

M109 S215 ; set temperature and wait for it to be reached
G21 ; set units to millimeters
G90 ; use absolute coordinates
M82 ; use absolute distances for extrusion
G92 E0
G1 Z0.400 F7800.000
G1 E-2.00000 F2400.00000
G92 E0
G1 X11.200 Y6.200 F7800.000
G1 E2.00000 F2400.00000
G1 F1800
G1 X168.800 Y6.200 E20.71739
G1 X168.800 Y83.800 E29.93357
G1 X11.200 Y83.800 E48.65096
G1 X11.200 Y6.260 E57.86001
G1 X11.055 Y5.827 F7800.000
G1 X10.400 Y5.400 F7800.000
G1 F1800
G1 X169.600 Y5.400 E76.76743
G1 X169.600 Y84.600 E86.17363
G1 X10.400 Y84.600 E105.08105
G1 X10.400 Y5.460 E114.48012
G1 X10.795 Y5.461 F7800.000
G1 E112.48012 F2400.00000
G92 E0
G1 X17.800 Y12.800 F7800.000
G1 E2.00000 F2400.00000
G1 F1800
G1 X162.200 Y12.800 E19.14969
G1 X162.200 Y77.200 E26.79817
G1 X17.800 Y77.200 E43.94786
G1 X17.800 Y12.860 E51.58921
G1 X17.650 Y12.429 F7800.000
G1 X17.000 Y12.000 F7800.000
G1 F1800
G1 X163.000 Y12.000 E68.92893
G1 X163.000 Y78.000 E76.76743
G1 X17.000 Y78.000 E94.10715
G1 X17.000 Y12.060 E101.93852
G1 X17.396 Y12.056 F7800.000
G1 E99.93852 F2400.00000
G92 E0
G1 X71.200 Y26.200 F7800.000
G1 E2.00000 F2400.00000
G1 F1800
G1 X108.800 Y26.200 E6.46557
G1 X108.800 Y63.800 E10.93114
G1 X71.200 Y63.800 E15.39671
G1 X71.200 Y26.260 E19.85516
G1 X71.096 Y25.814 F7800.000
G1 X70.400 Y25.400 F7800.000
G1 F1800
G1 X109.600 Y25.400 E24.51075
G1 X109.600 Y64.600 E29.16635
G1 X70.400 Y64.600 E33.82194
G1 X70.400 Y25.460 E38.47041
G1 X70.786 Y25.504 F7800.000
G1 E36.47041 F2400.00000
G92 E0
G1 X90.000 Y44.434 F7800.000
G1 E2.00000 F2400.00000
G1 F1800
G1 X102.269 Y32.166 E4.06063
G1 X102.834 Y32.731 E4.15564
G1 X90.566 Y45.000 E6.21627
G1 X102.834 Y57.269 E8.27690
G1 X102.269 Y57.834 E8.37192
G1 X90.000 Y45.566 E10.43255
G1 X77.731 Y57.834 E12.49318
G1 X77.166 Y57.269 E12.58819
G1 X89.434 Y45.000 E14.64882
G1 X77.166 Y32.731 E16.70945
G1 X77.731 Y32.166 E16.80446
G1 X89.958 Y44.392 E18.85797
G1 X90.287 Y44.713 F7800.000
G1 E16.85797 F2400.00000
G92 E0
; Filament-specific end gcode 
;END gcode for filament

M104 S0 ; turn off temperature
G28 X0  ; home X axis
M84     ; disable motors

M140 S0 ; set bed temperature
; filament used = 265.7mm (0.6cm3)
; total filament cost = 0.0

; avoid_crossing_perimeters = 0
; bed_shape = 0x0,180x0,180x90,0x90
; bed_temperature = 50
; before_layer_gcode = 
; between_objects_gcode = 
; bridge_acceleration = 0
; bridge_fan_speed = 100
; brim_connections_width = 0
; brim_width = 0
; complete_objects = 0
; cooling = 1
; default_acceleration = 0
; disable_fan_first_layers = 3
; duplicate_distance = 6
; end_filament_gcode = "; Filament-specific end gcode \n;END gcode for filament\n"
; end_gcode = M104 S0 ; turn off temperature\nG28 X0  ; home X axis\nM84     ; disable motors\n
; extruder_clearance_height = 20
; extruder_clearance_radius = 20
; extruder_offset = 0x0
; extrusion_axis = E
; extrusion_multiplier = 1
; fan_always_on = 0
; fan_below_layer_time = 60
; filament_colour = #FFFFFF
; filament_cost = 0
; filament_density = 0
; filament_diameter = 1.75
; filament_max_volumetric_speed = 0
; filament_notes = ""
; first_layer_acceleration = 0
; first_layer_bed_temperature = 55
; first_layer_extrusion_width = 200%
; first_layer_speed = 30
; first_layer_temperature = 215
; gcode_arcs = 0
; gcode_comments = 0
; gcode_flavor = reprap
; has_heatbed = 1
; infill_acceleration = 0
; infill_first = 0
; interior_brim_width = 0
; layer_gcode = 
; max_fan_speed = 100
; max_layer_height = 0.3
; max_print_speed = 80
; max_volumetric_speed = 0
; min_fan_speed = 35
; min_layer_height = 0.15
; min_print_speed = 10
; min_skirt_length = 0
; notes = 
; nozzle_diameter = 0.4
; only_retract_when_crossing_perimeters = 1
; ooze_prevention = 0
; output_filename_format = [input_filename_base].gcode
; perimeter_acceleration = 0
; post_process = 
; pressure_advance = 0
; printer_notes = 
; resolution = 0
; retract_before_travel = 2
; retract_layer_change = 0
; retract_length = 2
; retract_length_toolchange = 10
; retract_lift = 0
; retract_lift_above = 0
; retract_lift_below = 0
; retract_restart_extra = 0
; retract_restart_extra_toolchange = 0
; retract_speed = 40
; skirt_distance = 6
; skirt_height = 1
; skirts = 0
; slowdown_below_layer_time = 5
; spiral_vase = 0
; standby_temperature_delta = -5
; start_filament_gcode = "; Filament gcode\n"
; start_gcode = G28 ; home all axes\nG1 Z5 F5000 ; lift nozzle\nG1 X41 Y3\nG92 X0 Y0 Z5
; temperature = 210
; threads = 4
; toolchange_gcode = 
; travel_speed = 130
; use_firmware_retraction = 0
; use_relative_e_distances = 0
; use_set_and_wait_bed = 0
; use_set_and_wait_extruder = 0
; use_volumetric_e = 0
; vibration_limit = 0
; wipe = 0
; z_offset = 0
; z_steps_per_mm = 0
; adaptive_slicing = 0
; adaptive_slicing_quality = 75%
; dont_support_bridges = 1
; extrusion_width = 0
; first_layer_height = 0.4
; infill_only_where_needed = 0
; interface_shells = 0
; layer_height = 0.1
; match_horizontal_surfaces = 0
; raft_layers = 0
; regions_overlap = 0
; seam_position = aligned
; sequential_print_priority = 0
; support_material = 0
; support_material_angle = 0
; support_material_buildplate_only = 0
; support_material_contact_distance = 0.2
; support_material_enforce_layers = 0
; support_material_extruder = 1
; support_material_extrusion_width = 0
; support_material_interface_extruder = 1
; support_material_interface_extrusion_width = 0
; support_material_interface_layers = 3
; support_material_interface_spacing = 0
; support_material_interface_speed = 100%
; support_material_max_layers = 0
; support_material_pattern = pillars
; support_material_spacing = 2.5
; support_material_speed = 60
; support_material_threshold = 60%
; xy_size_compensation = 0
; bottom_infill_pattern = rectilinear
; bottom_solid_layers = 3
; bridge_flow_ratio = 1
; bridge_speed = 60
; external_perimeter_extrusion_width = 0
; external_perimeter_speed = 50%
; external_perimeters_first = 0
; extra_perimeters = 1
; fill_angle = 45
; fill_density = 20%
; fill_gaps = 1
; fill_pattern = stars
; gap_fill_speed = 20
; infill_every_layers = 1
; infill_extruder = 1
; infill_extrusion_width = 0
; infill_overlap = 55%
; infill_speed = 80
; overhangs = 1
; perimeter_extruder = 1
; perimeter_extrusion_width = 0
; perimeter_speed = 60
; perimeters = 3
; small_perimeter_speed = 15
; solid_infill_below_area = 70
; solid_infill_every_layers = 0
; solid_infill_extruder = 1
; solid_infill_extrusion_width = 0
; solid_infill_speed = 20
; thin_walls = 1
; top_infill_extrusion_width = 0
; top_infill_pattern = rectilinear
; top_solid_infill_speed = 15
; top_solid_layers = 3
