; generated by Slic3r 1.3.0 on 2019-09-10 at 04:11:57

; external perimeters extrusion width = 0.44mm (6.76mm^3/s)
; perimeters extrusion width = 0.48mm (15.08mm^3/s)
; infill extrusion width = 0.48mm (20.11mm^3/s)
; solid infill extrusion width = 0.48mm (5.03mm^3/s)
; top infill extrusion width = 0.48mm (3.77mm^3/s)

M107
M190 S55 ; set bed temperature and wait for it to be reached
M104 S205 ; set temperature
G28 ; home all axes
G1 Z5 F5000 ; lift nozzle
; Filament gcode

M109 S205 ; set temperature and wait for it to be reached
G21 ; set units to millimeters
G90 ; use absolute coordinates
M82 ; use absolute distances for extrusion
G92 E0
G1 Z0.400 F7800.000
G1 E-2.00000 F2400.00000
G92 E0
G1 X97.327 Y94.720 F7800.000
G1 E2.00000 F2400.00000
G1 F1800
G1 X99.083 Y93.220 E2.27422
G1 X101.243 Y92.405 E2.54845
G1 X102.500 Y92.286 E2.69842
G1 X148.500 Y92.286 E8.16161
G1 X150.775 Y92.683 E8.43584
G1 X152.780 Y93.827 E8.71006
G1 X154.280 Y95.583 E8.98429
G1 X155.095 Y97.743 E9.25851
G1 X155.214 Y99.000 E9.40848
G1 X155.214 Y114.000 E11.18996
G1 X154.817 Y116.275 E11.46418
G1 X153.673 Y118.280 E11.73841
G1 X151.917 Y119.780 E12.01263
G1 X149.757 Y120.595 E12.28686
G1 X148.500 Y120.714 E12.43682
G1 X102.500 Y120.714 E17.90002
G1 X100.225 Y120.317 E18.17425
G1 X98.220 Y119.173 E18.44847
G1 X96.720 Y117.417 E18.72270
G1 X95.905 Y115.257 E18.99692
G1 X95.786 Y114.000 E19.14689
G1 X95.786 Y99.000 E20.92837
G1 X96.183 Y96.725 E21.20259
G1 X97.297 Y94.772 E21.46969
G1 E19.46969 F2400.00000
G92 E0
G1 X146.672 Y112.172 F7800.000
G1 E2.00000 F2400.00000
G1 F1800
G1 X104.328 Y112.172 E7.02892
G1 X104.328 Y100.828 E8.37611
G1 X146.672 Y100.828 E13.40503
G1 X146.672 Y112.112 E14.74510
G1 X147.386 Y112.886 F7800.000
G1 F1800
G1 X103.614 Y112.886 E19.94365
G1 X103.614 Y100.114 E21.46048
G1 X147.386 Y100.114 E26.65904
G1 X147.386 Y112.826 E28.16874
G1 X148.100 Y113.600 F7800.000
G1 F1800
G1 X102.900 Y113.600 E33.53693
G1 X102.900 Y99.400 E35.22339
G1 X148.100 Y99.400 E40.59158
G1 X148.100 Y113.540 E42.27092
G1 X147.702 Y113.559 F7800.000
G1 E40.27092 F2400.00000
G92 E0
G1 X145.680 Y111.735 F7800.000
G1 E2.00000 F2400.00000
G1 F1800
G1 X146.235 Y111.180 E2.09393
G1 X146.235 Y110.163 E2.21546
G1 X144.663 Y111.735 E2.48127
G1 X143.646 Y111.735 E2.60279
G1 X146.235 Y109.146 E3.04046
G1 X146.235 Y108.130 E3.16199
G1 X142.630 Y111.735 E3.77153
G1 X141.613 Y111.735 E3.89305
G1 X146.235 Y107.113 E4.67446
G1 X146.235 Y106.097 E4.79598
G1 X140.597 Y111.735 E5.74925
G1 X139.580 Y111.735 E5.87078
G1 X146.235 Y105.080 E6.99592
G1 X146.235 Y104.063 E7.11745
G1 X138.563 Y111.735 E8.41445
G1 X137.547 Y111.735 E8.53598
G1 X146.235 Y103.047 E10.00485
G1 X146.235 Y102.030 E10.12637
G1 X136.530 Y111.735 E11.76711
G1 X135.514 Y111.735 E11.88864
G1 X145.984 Y101.265 E13.65880
G1 X144.968 Y101.265 E13.78033
G1 X134.497 Y111.735 E15.55050
G1 X133.480 Y111.735 E15.67202
G1 X143.951 Y101.265 E17.44219
G1 X142.934 Y101.265 E17.56372
G1 X132.464 Y111.735 E19.33388
G1 X131.447 Y111.735 E19.45541
G1 X141.918 Y101.265 E21.22557
G1 X140.901 Y101.265 E21.34710
G1 X130.431 Y111.735 E23.11727
G1 X129.414 Y111.735 E23.23879
G1 X139.885 Y101.265 E25.00896
G1 X138.868 Y101.265 E25.13049
G1 X128.397 Y111.735 E26.90065
G1 X127.381 Y111.735 E27.02218
G1 X137.851 Y101.265 E28.79234
G1 X136.835 Y101.265 E28.91387
G1 X126.364 Y111.735 E30.68404
G1 X125.348 Y111.735 E30.80557
G1 X135.818 Y101.265 E32.57573
G1 X134.802 Y101.265 E32.69726
G1 X124.331 Y111.735 E34.46742
G1 X123.315 Y111.735 E34.58895
G1 X133.785 Y101.265 E36.35912
G1 X132.768 Y101.265 E36.48064
G1 X122.298 Y111.735 E38.25081
G1 X121.281 Y111.735 E38.37234
G1 X131.752 Y101.265 E40.14250
G1 X130.735 Y101.265 E40.26403
G1 X120.265 Y111.735 E42.03419
G1 X119.248 Y111.735 E42.15572
G1 X129.719 Y101.265 E43.92589
G1 X128.702 Y101.265 E44.04742
G1 X118.232 Y111.735 E45.81758
G1 X117.215 Y111.735 E45.93911
G1 X127.686 Y101.265 E47.70927
G1 X126.669 Y101.265 E47.83080
G1 X116.198 Y111.735 E49.60097
G1 X115.182 Y111.735 E49.72249
G1 X125.652 Y101.265 E51.49266
G1 X124.636 Y101.265 E51.61419
G1 X114.165 Y111.735 E53.38435
G1 X113.149 Y111.735 E53.50588
G1 X123.619 Y101.265 E55.27604
G1 X122.603 Y101.265 E55.39757
G1 X112.132 Y111.735 E57.16774
G1 X111.115 Y111.735 E57.28926
G1 X121.586 Y101.265 E59.05943
G1 X120.569 Y101.265 E59.18096
G1 X110.099 Y111.735 E60.95112
G1 X109.082 Y111.735 E61.07265
G1 X119.553 Y101.265 E62.84281
G1 X118.536 Y101.265 E62.96434
G1 X108.066 Y111.735 E64.73451
G1 X107.049 Y111.735 E64.85603
G1 X117.520 Y101.265 E66.62620
G1 X116.503 Y101.265 E66.74773
G1 X106.032 Y111.735 E68.51789
G1 X105.016 Y111.735 E68.63942
G1 X115.486 Y101.265 E70.40958
G1 X114.470 Y101.265 E70.53111
G1 X104.765 Y110.970 E72.17185
G1 X104.765 Y109.953 E72.29338
G1 X113.453 Y101.265 E73.76225
G1 X112.437 Y101.265 E73.88378
G1 X104.765 Y108.937 E75.18078
G1 X104.765 Y107.920 E75.30231
G1 X111.420 Y101.265 E76.42745
G1 X110.403 Y101.265 E76.54897
G1 X104.765 Y106.903 E77.50225
G1 X104.765 Y105.887 E77.62377
G1 X109.387 Y101.265 E78.40518
G1 X108.370 Y101.265 E78.52671
G1 X104.765 Y104.870 E79.13624
G1 X104.765 Y103.854 E79.25777
G1 X107.354 Y101.265 E79.69544
G1 X106.337 Y101.265 E79.81697
G1 X104.765 Y102.837 E80.08277
G1 X104.765 Y101.820 E80.20430
G1 X105.320 Y101.265 E80.29824
M104 S200 ; set temperature
M140 S50 ; set bed temperature
G1 Z0.700 F7800.000
G1 X147.464 Y112.964 F7800.000
G1 F7200
G1 X103.536 Y112.964 E82.59324
G1 X103.536 Y100.036 E83.26865
G1 X147.464 Y100.036 E85.56365
G1 X147.464 Y112.904 E86.23592
G1 X147.883 Y113.383 F7800.000
G1 F7200
G1 X103.117 Y113.383 E88.57469
G1 X103.117 Y99.617 E89.29387
G1 X147.883 Y99.617 E91.63264
G1 X147.883 Y113.323 E92.34868
G1 X148.280 Y113.780 F7800.000
G1 F3600
G1 X102.720 Y113.780 E94.48314
G1 X102.720 Y99.220 E95.16526
G1 X148.280 Y99.220 E97.29972
G1 X148.280 Y113.720 E97.97903
G1 X147.882 Y113.739 F7800.000
G1 X147.208 Y100.618 F7800.000
G1 F2400
G1 X146.882 Y100.292 E98.00315
G1 X146.289 Y100.292 E98.03420
G1 X147.208 Y101.211 E98.10223
G1 X147.208 Y101.805 E98.13328
G1 X145.695 Y100.292 E98.24522
G1 X145.102 Y100.292 E98.27627
G1 X147.208 Y102.398 E98.43211
G1 X147.208 Y102.991 E98.46316
G1 X144.509 Y100.292 E98.66292
G1 X143.915 Y100.292 E98.69397
G1 X147.208 Y103.585 E98.93763
G1 X147.208 Y104.178 E98.96868
G1 X143.322 Y100.292 E99.25625
G1 X142.729 Y100.292 E99.28730
G1 X147.208 Y104.771 E99.61878
G1 X147.208 Y105.365 E99.64983
G1 X142.135 Y100.292 E100.02522
G1 X141.542 Y100.292 E100.05627
G1 X147.208 Y105.958 E100.47556
G1 X147.208 Y106.551 E100.50661
G1 X140.949 Y100.292 E100.96982
G1 X140.355 Y100.292 E101.00087
G1 X147.208 Y107.145 E101.50798
G1 X147.208 Y107.738 E101.53903
G1 X139.762 Y100.292 E102.09005
G1 X139.169 Y100.292 E102.12110
G1 X147.208 Y108.331 E102.71603
G1 X147.208 Y108.925 E102.74708
G1 X138.575 Y100.292 E103.38592
G1 X137.982 Y100.292 E103.41697
G1 X147.208 Y109.518 E104.09972
G1 X147.208 Y110.111 E104.13077
G1 X137.389 Y100.292 E104.85743
G1 X136.795 Y100.292 E104.88847
G1 X147.208 Y110.705 E105.65904
G1 X147.208 Y111.298 E105.69009
G1 X136.202 Y100.292 E106.50456
G1 X135.609 Y100.292 E106.53561
G1 X147.208 Y111.891 E107.39399
G1 X147.208 Y112.485 E107.42504
G1 X135.015 Y100.292 E108.32733
G1 X134.422 Y100.292 E108.35838
G1 X146.838 Y112.708 E109.27720
G1 X146.245 Y112.708 E109.30824
G1 X133.829 Y100.292 E110.22706
G1 X133.235 Y100.292 E110.25811
G1 X145.651 Y112.708 E111.17692
G1 X145.058 Y112.708 E111.20797
G1 X132.642 Y100.292 E112.12679
G1 X132.049 Y100.292 E112.15783
G1 X144.465 Y112.708 E113.07665
G1 X143.871 Y112.708 E113.10770
G1 X131.455 Y100.292 E114.02651
G1 X130.862 Y100.292 E114.05756
G1 X143.278 Y112.708 E114.97637
G1 X142.685 Y112.708 E115.00742
G1 X130.269 Y100.292 E115.92624
G1 X129.675 Y100.292 E115.95729
G1 X142.091 Y112.708 E116.87610
G1 X141.498 Y112.708 E116.90715
G1 X129.082 Y100.292 E117.82596
G1 X128.489 Y100.292 E117.85701
G1 X140.905 Y112.708 E118.77583
G1 X140.311 Y112.708 E118.80688
G1 X127.895 Y100.292 E119.72569
G1 X127.302 Y100.292 E119.75674
G1 X139.718 Y112.708 E120.67555
G1 X139.125 Y112.708 E120.70660
G1 X126.709 Y100.292 E121.62542
G1 X126.115 Y100.292 E121.65646
G1 X138.531 Y112.708 E122.57528
G1 X137.938 Y112.708 E122.60633
G1 X125.522 Y100.292 E123.52514
G1 X124.929 Y100.292 E123.55619
G1 X137.345 Y112.708 E124.47501
G1 X136.751 Y112.708 E124.50605
G1 X124.335 Y100.292 E125.42487
G1 X123.742 Y100.292 E125.45592
G1 X136.158 Y112.708 E126.37473
G1 X135.565 Y112.708 E126.40578
G1 X123.149 Y100.292 E127.32460
G1 X122.555 Y100.292 E127.35564
G1 X134.971 Y112.708 E128.27446
G1 X134.378 Y112.708 E128.30551
G1 X121.962 Y100.292 E129.22432
G1 X121.369 Y100.292 E129.25537
G1 X133.785 Y112.708 E130.17418
G1 X133.191 Y112.708 E130.20523
G1 X120.775 Y100.292 E131.12405
G1 X120.182 Y100.292 E131.15510
G1 X132.598 Y112.708 E132.07391
G1 X132.005 Y112.708 E132.10496
G1 X119.589 Y100.292 E133.02377
G1 X118.995 Y100.292 E133.05482
G1 X131.411 Y112.708 E133.97364
G1 X130.818 Y112.708 E134.00468
G1 X118.402 Y100.292 E134.92350
G1 X117.809 Y100.292 E134.95455
G1 X130.225 Y112.708 E135.87336
G1 X129.631 Y112.708 E135.90441
G1 X117.215 Y100.292 E136.82323
G1 X116.622 Y100.292 E136.85427
G1 X129.038 Y112.708 E137.77309
G1 X128.445 Y112.708 E137.80414
G1 X116.029 Y100.292 E138.72295
G1 X115.435 Y100.292 E138.75400
G1 X127.851 Y112.708 E139.67282
G1 X127.258 Y112.708 E139.70386
G1 X114.842 Y100.292 E140.62268
G1 X114.249 Y100.292 E140.65373
G1 X126.665 Y112.708 E141.57254
G1 X126.071 Y112.708 E141.60359
G1 X113.655 Y100.292 E142.52240
G1 X113.062 Y100.292 E142.55345
G1 X125.478 Y112.708 E143.47227
G1 X124.885 Y112.708 E143.50332
G1 X112.469 Y100.292 E144.42213
G1 X111.875 Y100.292 E144.45318
G1 X124.291 Y112.708 E145.37199
G1 X123.698 Y112.708 E145.40304
G1 X111.282 Y100.292 E146.32186
G1 X110.689 Y100.292 E146.35290
G1 X123.105 Y112.708 E147.27172
G1 X122.511 Y112.708 E147.30277
G1 X110.095 Y100.292 E148.22158
G1 X109.502 Y100.292 E148.25263
G1 X121.918 Y112.708 E149.17145
G1 X121.325 Y112.708 E149.20249
G1 X108.909 Y100.292 E150.12131
G1 X108.315 Y100.292 E150.15236
G1 X120.731 Y112.708 E151.07117
G1 X120.138 Y112.708 E151.10222
G1 X107.722 Y100.292 E152.02104
G1 X107.129 Y100.292 E152.05208
G1 X119.545 Y112.708 E152.97090
G1 X118.951 Y112.708 E153.00195
G1 X106.535 Y100.292 E153.92076
G1 X105.942 Y100.292 E153.95181
G1 X118.358 Y112.708 E154.87062
G1 X117.765 Y112.708 E154.90167
G1 X105.349 Y100.292 E155.82049
G1 X104.756 Y100.292 E155.85154
G1 X117.171 Y112.708 E156.77035
G1 X116.578 Y112.708 E156.80140
G1 X104.162 Y100.292 E157.72021
G1 X103.792 Y100.292 E157.73958
G1 X103.792 Y100.515 E157.75126
G1 X115.985 Y112.708 E158.65356
G1 X115.391 Y112.708 E158.68460
G1 X103.792 Y101.109 E159.54299
G1 X103.792 Y101.702 E159.57404
G1 X114.798 Y112.708 E160.38852
G1 X114.205 Y112.708 E160.41956
G1 X103.792 Y102.295 E161.19013
G1 X103.792 Y102.889 E161.22118
G1 X113.611 Y112.708 E161.94784
G1 X113.018 Y112.708 E161.97889
G1 X103.792 Y103.482 E162.66164
G1 X103.792 Y104.075 E162.69269
G1 X112.425 Y112.708 E163.33154
G1 X111.831 Y112.708 E163.36258
G1 X103.792 Y104.669 E163.95752
G1 X103.792 Y105.262 E163.98857
G1 X111.238 Y112.708 E164.53959
G1 X110.645 Y112.708 E164.57064
G1 X103.792 Y105.855 E165.07776
G1 X103.792 Y106.449 E165.10881
G1 X110.051 Y112.708 E165.57202
G1 X109.458 Y112.708 E165.60307
G1 X103.792 Y107.042 E166.02237
G1 X103.792 Y107.635 E166.05342
G1 X108.865 Y112.708 E166.42881
G1 X108.271 Y112.708 E166.45986
G1 X103.792 Y108.229 E166.79134
G1 X103.792 Y108.822 E166.82239
G1 X107.678 Y112.708 E167.10996
G1 X107.085 Y112.708 E167.14101
G1 X103.792 Y109.415 E167.38468
G1 X103.792 Y110.009 E167.41573
G1 X106.491 Y112.708 E167.61549
G1 X105.898 Y112.708 E167.64653
G1 X103.792 Y110.602 E167.80239
G1 X103.792 Y111.195 E167.83343
G1 X105.305 Y112.708 E167.94538
G1 X104.711 Y112.708 E167.97642
G1 X103.792 Y111.789 E168.04446
G1 X103.792 Y112.382 E168.07550
G1 X104.118 Y112.708 E168.09962
G1 Z1.000 F7800.000
G1 X147.464 Y112.964 F7800.000
G1 F7200
G1 X103.536 Y112.964 E170.39462
G1 X103.536 Y100.036 E171.07003
G1 X147.464 Y100.036 E173.36503
G1 X147.464 Y112.904 E174.03730
G1 X147.883 Y113.383 F7800.000
G1 F7200
G1 X103.117 Y113.383 E176.37607
G1 X103.117 Y99.617 E177.09525
G1 X147.883 Y99.617 E179.43402
G1 X147.883 Y113.323 E180.15006
G1 X148.280 Y113.780 F7800.000
G1 F3600
G1 X102.720 Y113.780 E182.28451
G1 X102.720 Y99.220 E182.96664
G1 X148.280 Y99.220 E185.10110
G1 X148.280 Y113.720 E185.78041
G1 X147.882 Y113.739 F7800.000
G1 X146.882 Y112.708 F7800.000
G1 F2400
G1 X147.208 Y112.382 E185.80453
G1 X147.208 Y111.789 E185.83558
G1 X146.289 Y112.708 E185.90361
G1 X145.695 Y112.708 E185.93466
G1 X147.208 Y111.195 E186.04660
G1 X147.208 Y110.602 E186.07765
G1 X145.102 Y112.708 E186.23349
G1 X144.509 Y112.708 E186.26454
G1 X147.208 Y110.009 E186.46430
G1 X147.208 Y109.415 E186.49534
G1 X143.915 Y112.708 E186.73901
G1 X143.322 Y112.708 E186.77006
G1 X147.208 Y108.822 E187.05763
G1 X147.208 Y108.229 E187.08868
G1 X142.729 Y112.708 E187.42016
G1 X142.135 Y112.708 E187.45121
G1 X147.208 Y107.635 E187.82660
G1 X147.208 Y107.042 E187.85764
G1 X141.542 Y112.708 E188.27694
G1 X140.949 Y112.708 E188.30799
G1 X147.208 Y106.449 E188.77120
G1 X147.208 Y105.855 E188.80225
G1 X140.355 Y112.708 E189.30936
G1 X139.762 Y112.708 E189.34041
G1 X147.208 Y105.262 E189.89143
G1 X147.208 Y104.669 E189.92248
G1 X139.169 Y112.708 E190.51741
G1 X138.575 Y112.708 E190.54846
G1 X147.208 Y104.075 E191.18730
G1 X147.208 Y103.482 E191.21835
G1 X137.982 Y112.708 E191.90110
G1 X137.389 Y112.708 E191.93215
G1 X147.208 Y102.889 E192.65880
G1 X147.208 Y102.295 E192.68985
G1 X136.795 Y112.708 E193.46042
G1 X136.202 Y112.708 E193.49147
G1 X147.208 Y101.702 E194.30594
G1 X147.208 Y101.109 E194.33699
G1 X135.609 Y112.708 E195.19537
G1 X135.015 Y112.708 E195.22642
G1 X147.208 Y100.515 E196.12871
G1 X147.208 Y100.292 E196.14040
G1 X146.838 Y100.292 E196.15976
G1 X134.422 Y112.708 E197.07857
G1 X133.829 Y112.708 E197.10962
G1 X146.245 Y100.292 E198.02844
G1 X145.651 Y100.292 E198.05949
G1 X133.235 Y112.708 E198.97830
G1 X132.642 Y112.708 E199.00935
G1 X145.058 Y100.292 E199.92816
G1 X144.465 Y100.292 E199.95921
G1 X132.049 Y112.708 E200.87803
G1 X131.455 Y112.708 E200.90908
G1 X143.871 Y100.292 E201.82789
G1 X143.278 Y100.292 E201.85894
G1 X130.862 Y112.708 E202.77775
G1 X130.269 Y112.708 E202.80880
G1 X142.685 Y100.292 E203.72762
G1 X142.091 Y100.292 E203.75866
G1 X129.675 Y112.708 E204.67748
G1 X129.082 Y112.708 E204.70853
G1 X141.498 Y100.292 E205.62734
G1 X140.905 Y100.292 E205.65839
G1 X128.489 Y112.708 E206.57721
G1 X127.895 Y112.708 E206.60825
G1 X140.311 Y100.292 E207.52707
G1 X139.718 Y100.292 E207.55812
G1 X127.302 Y112.708 E208.47693
G1 X126.709 Y112.708 E208.50798
G1 X139.125 Y100.292 E209.42680
G1 X138.531 Y100.292 E209.45784
G1 X126.115 Y112.708 E210.37666
G1 X125.522 Y112.708 E210.40771
G1 X137.938 Y100.292 E211.32652
G1 X137.345 Y100.292 E211.35757
G1 X124.929 Y112.708 E212.27639
G1 X124.335 Y112.708 E212.30743
G1 X136.751 Y100.292 E213.22625
G1 X136.158 Y100.292 E213.25730
G1 X123.742 Y112.708 E214.17611
G1 X123.149 Y112.708 E214.20716
G1 X135.565 Y100.292 E215.12598
G1 X134.971 Y100.292 E215.15702
G1 X122.555 Y112.708 E216.07584
G1 X121.962 Y112.708 E216.10689
G1 X134.378 Y100.292 E217.02570
G1 X133.785 Y100.292 E217.05675
G1 X121.369 Y112.708 E217.97557
G1 X120.775 Y112.708 E218.00661
G1 X133.191 Y100.292 E218.92543
G1 X132.598 Y100.292 E218.95648
G1 X120.182 Y112.708 E219.87529
G1 X119.589 Y112.708 E219.90634
G1 X132.005 Y100.292 E220.82516
G1 X131.411 Y100.292 E220.85620
G1 X118.995 Y112.708 E221.77502
G1 X118.402 Y112.708 E221.80607
G1 X130.818 Y100.292 E222.72488
G1 X130.225 Y100.292 E222.75593
G1 X117.809 Y112.708 E223.67474
G1 X117.215 Y112.708 E223.70579
G1 X129.631 Y100.292 E224.62461
G1 X129.038 Y100.292 E224.65566
G1 X116.622 Y112.708 E225.57447
G1 X116.029 Y112.708 E225.60552
G1 X128.445 Y100.292 E226.52433
G1 X127.851 Y100.292 E226.55538
G1 X115.435 Y112.708 E227.47420
G1 X114.842 Y112.708 E227.50525
